{
  "type": "map",
  "version": "1.10",
  "tiledversion": "1.10.2",
  "orientation": "orthogonal",
  "renderorder": "right-down",
  "infinite": false,
  "width": 32,
  "height": 32,
  "tilewidth": 16,
  "tileheight": 16,
  "nextlayerid": 3,
  "nextobjectid": 17,
  "tilesets": [
    {
      "firstgid": 1,
      "name": "Environment",
      "image": "../atlas-native.png",
      "imagewidth": 256,
      "imageheight": 256,
      "tilewidth": 16,
      "tileheight": 16,
      "columns": 16,
      "tilecount": 256,
      "margin": 0,
      "spacing": 0
    },
    {
      "firstgid": 257,
      "name": "Larger fixtures",
      "image": "atlas-native.png",
      "imagewidth": 256,
      "imageheight": 256,
      "tilewidth": 16,
      "tileheight": 16,
      "columns": 16,
      "tilecount": 256,
      "margin": 0,
      "spacing": 0
    }
  ],
  "layers": [
    {
      "id": 1,
      "name": "Assemblies",
      "type": "tilelayer",
      "x": 0,
      "y": 0,
      "width": 32,
      "height": 32,
      "visible": true,
      "opacity": 1,
      "data": [
        1,
        1,
        1,
        1,
        1,
        1,
        1,
        1,
        1,
        1,
        1,
        1,
        1,
        1,
        1,
        1,
        1,
        1,
        1,
        1,
        1,
        1,
        1,
        1,
        1,
        1,
        1,
        1,
        1,
        1,
        1,
        1,
        1,
        1,
        257,
        258,
        259,
        260,
        1,
        1,
        1,
        1,
        261,
        262,
        263,
        264,
        1,
        1,
        1,
        1,
        265,
        266,
        267,
        268,
        1,
        1,
        1,
        1,
        269,
        270,
        271,
        272,
        1,
        1,
        1,
        1,
        273,
        274,
        275,
        276,
        1,
        1,
        1,
        1,
        277,
        278,
        279,
        280,
        1,
        1,
        1,
        1,
        281,
        282,
        283,
        284,
        1,
        1,
        1,
        1,
        285,
        286,
        287,
        288,
        1,
        1,
        1,
        1,
        289,
        290,
        291,
        292,
        1,
        1,
        1,
        1,
        293,
        294,
        295,
        296,
        1,
        1,
        1,
        1,
        297,
        298,
        299,
        300,
        1,
        1,
        1,
        1,
        301,
        302,
        303,
        304,
        1,
        1,
        1,
        1,
        305,
        306,
        307,
        308,
        1,
        1,
        1,
        1,
        309,
        310,
        311,
        312,
        1,
        1,
        1,
        1,
        313,
        314,
        315,
        316,
        1,
        1,
        1,
        1,
        317,
        318,
        319,
        320,
        1,
        1,
        2,
        2,
        2,
        2,
        2,
        2,
        2,
        2,
        2,
        2,
        2,
        2,
        2,
        2,
        2,
        2,
        2,
        2,
        2,
        2,
        2,
        2,
        2,
        2,
        2,
        2,
        2,
        2,
        2,
        2,
        2,
        2,
        1,
        1,
        1,
        1,
        1,
        1,
        1,
        1,
        1,
        1,
        1,
        1,
        1,
        1,
        1,
        1,
        1,
        1,
        1,
        1,
        1,
        1,
        1,
        1,
        1,
        1,
        1,
        1,
        1,
        1,
        1,
        1,
        1,
        1,
        1,
        1,
        1,
        1,
        1,
        1,
        1,
        1,
        1,
        1,
        1,
        1,
        1,
        1,
        1,
        1,
        1,
        1,
        1,
        1,
        1,
        1,
        1,
        1,
        1,
        1,
        1,
        1,
        1,
        1,
        1,
        1,
        3,
        3,
        3,
        3,
        1,
        1,
        1,
        1,
        1,
        2,
        2,
        1,
        1,
        1,
        1,
        1,
        1,
        1,
        1,
        1,
        1,
        1,
        65,
        65,
        65,
        65,
        65,
        65,
        65,
        65,
        1,
        1,
        3,
        3,
        3,
        3,
        1,
        1,
        1,
        1,
        1,
        2,
        2,
        1,
        1,
        1,
        1,
        1,
        1,
        1,
        1,
        1,
        1,
        1,
        65,
        65,
        65,
        65,
        65,
        65,
        65,
        65,
        1,
        1,
        321,
        322,
        323,
        324,
        1,
        1,
        3,
        3,
        325,
        326,
        327,
        328,
        3,
        3,
        1,
        1,
        329,
        330,
        331,
        332,
        1,
        1,
        65,
        65,
        333,
        334,
        335,
        336,
        65,
        65,
        2,
        2,
        337,
        338,
        339,
        340,
        2,
        2,
        3,
        3,
        341,
        342,
        343,
        344,
        3,
        3,
        1,
        1,
        345,
        346,
        347,
        348,
        1,
        1,
        65,
        65,
        349,
        350,
        351,
        352,
        65,
        65,
        2,
        2,
        353,
        354,
        355,
        356,
        2,
        2,
        3,
        3,
        357,
        358,
        359,
        360,
        3,
        3,
        1,
        1,
        361,
        362,
        363,
        364,
        1,
        1,
        65,
        65,
        365,
        366,
        367,
        368,
        65,
        65,
        1,
        1,
        369,
        370,
        371,
        372,
        1,
        1,
        3,
        3,
        373,
        374,
        375,
        376,
        3,
        3,
        1,
        1,
        377,
        378,
        379,
        380,
        1,
        1,
        65,
        65,
        381,
        382,
        383,
        384,
        65,
        65,
        1,
        1,
        3,
        3,
        3,
        3,
        1,
        1,
        1,
        1,
        1,
        2,
        2,
        1,
        1,
        1,
        1,
        1,
        1,
        1,
        1,
        1,
        1,
        1,
        65,
        65,
        65,
        65,
        65,
        65,
        65,
        65,
        1,
        1,
        3,
        3,
        3,
        3,
        1,
        1,
        1,
        1,
        1,
        2,
        2,
        1,
        1,
        1,
        1,
        1,
        1,
        1,
        1,
        1,
        1,
        1,
        65,
        65,
        65,
        65,
        65,
        65,
        65,
        65,
        1,
        1,
        1,
        1,
        1,
        1,
        1,
        1,
        1,
        1,
        1,
        1,
        1,
        1,
        1,
        1,
        65,
        65,
        65,
        65,
        65,
        65,
        65,
        65,
        65,
        65,
        65,
        65,
        65,
        65,
        65,
        65,
        1,
        1,
        1,
        1,
        1,
        1,
        1,
        1,
        1,
        1,
        1,
        1,
        1,
        1,
        1,
        1,
        65,
        65,
        65,
        65,
        65,
        65,
        65,
        65,
        65,
        65,
        65,
        65,
        65,
        65,
        65,
        65,
        1,
        1,
        385,
        386,
        387,
        388,
        1,
        1,
        1,
        1,
        389,
        390,
        391,
        392,
        1,
        1,
        65,
        65,
        393,
        394,
        395,
        396,
        65,
        65,
        65,
        65,
        397,
        398,
        399,
        400,
        65,
        65,
        1,
        1,
        401,
        402,
        403,
        404,
        1,
        1,
        1,
        1,
        405,
        406,
        407,
        408,
        1,
        1,
        65,
        65,
        409,
        410,
        411,
        412,
        65,
        65,
        65,
        65,
        413,
        414,
        415,
        416,
        65,
        65,
        1,
        1,
        417,
        418,
        419,
        420,
        1,
        1,
        1,
        1,
        421,
        422,
        423,
        424,
        1,
        1,
        65,
        65,
        425,
        426,
        427,
        428,
        65,
        65,
        65,
        65,
        429,
        430,
        431,
        432,
        65,
        65,
        1,
        1,
        433,
        434,
        435,
        436,
        1,
        1,
        1,
        1,
        437,
        438,
        439,
        440,
        1,
        1,
        65,
        65,
        441,
        442,
        443,
        444,
        65,
        65,
        65,
        65,
        445,
        446,
        447,
        448,
        65,
        65,
        1,
        1,
        1,
        1,
        1,
        1,
        1,
        1,
        1,
        1,
        1,
        1,
        1,
        1,
        1,
        1,
        65,
        65,
        65,
        65,
        65,
        65,
        65,
        65,
        65,
        65,
        65,
        65,
        65,
        65,
        65,
        65,
        1,
        1,
        1,
        1,
        1,
        1,
        1,
        1,
        1,
        1,
        1,
        1,
        1,
        1,
        1,
        1,
        65,
        65,
        65,
        65,
        65,
        65,
        65,
        65,
        65,
        65,
        65,
        65,
        65,
        65,
        65,
        65,
        1,
        1,
        1,
        1,
        3,
        3,
        3,
        3,
        49,
        49,
        49,
        49,
        49,
        49,
        49,
        49,
        1,
        1,
        1,
        1,
        1,
        1,
        1,
        1,
        1,
        1,
        1,
        1,
        1,
        1,
        1,
        1,
        1,
        1,
        1,
        1,
        3,
        3,
        3,
        3,
        49,
        51,
        51,
        51,
        51,
        51,
        51,
        49,
        1,
        1,
        1,
        1,
        1,
        1,
        1,
        1,
        1,
        1,
        1,
        1,
        1,
        1,
        1,
        1,
        1,
        1,
        449,
        450,
        451,
        452,
        3,
        3,
        49,
        51,
        453,
        454,
        455,
        456,
        51,
        49,
        1,
        1,
        457,
        458,
        459,
        460,
        1,
        1,
        1,
        1,
        461,
        462,
        463,
        464,
        1,
        1,
        1,
        1,
        465,
        466,
        467,
        468,
        3,
        3,
        49,
        51,
        469,
        470,
        471,
        472,
        51,
        49,
        1,
        1,
        473,
        474,
        475,
        476,
        1,
        1,
        1,
        1,
        477,
        478,
        479,
        480,
        1,
        1,
        1,
        1,
        481,
        482,
        483,
        484,
        3,
        3,
        49,
        51,
        485,
        486,
        487,
        488,
        51,
        49,
        1,
        1,
        489,
        490,
        491,
        492,
        1,
        1,
        1,
        1,
        493,
        494,
        495,
        496,
        1,
        1,
        1,
        1,
        497,
        498,
        499,
        500,
        3,
        3,
        49,
        51,
        501,
        502,
        503,
        504,
        51,
        49,
        1,
        1,
        505,
        506,
        507,
        508,
        1,
        1,
        1,
        1,
        509,
        510,
        511,
        512,
        1,
        1,
        1,
        1,
        1,
        1,
        3,
        3,
        3,
        3,
        49,
        51,
        51,
        51,
        51,
        51,
        51,
        49,
        1,
        1,
        1,
        1,
        1,
        1,
        1,
        1,
        1,
        1,
        1,
        1,
        1,
        1,
        1,
        1,
        1,
        1,
        1,
        1,
        3,
        3,
        3,
        3,
        49,
        49,
        49,
        49,
        49,
        49,
        49,
        49,
        1,
        1,
        1,
        1,
        1,
        1,
        1,
        1,
        1,
        1,
        1,
        1,
        1,
        1,
        1,
        1
      ]
    },
    {
      "id": 2,
      "name": "Fixture locations",
      "type": "objectgroup",
      "visible": true,
      "opacity": 1,
      "objects": [
        {
          "id": 1,
          "name": "Cottage",
          "type": "Fixture review",
          "x": 0,
          "y": 0,
          "width": 128,
          "height": 128,
          "rotation": 0,
          "visible": true
        },
        {
          "id": 2,
          "name": "Woodland cabin",
          "type": "Fixture review",
          "x": 128,
          "y": 0,
          "width": 128,
          "height": 128,
          "rotation": 0,
          "visible": true
        },
        {
          "id": 3,
          "name": "Village shop",
          "type": "Fixture review",
          "x": 256,
          "y": 0,
          "width": 128,
          "height": 128,
          "rotation": 0,
          "visible": true
        },
        {
          "id": 4,
          "name": "Ruined watchtower",
          "type": "Fixture review",
          "x": 384,
          "y": 0,
          "width": 128,
          "height": 128,
          "rotation": 0,
          "visible": true
        },
        {
          "id": 5,
          "name": "Horizontal bridge",
          "type": "Fixture review",
          "x": 0,
          "y": 128,
          "width": 128,
          "height": 128,
          "rotation": 0,
          "visible": true
        },
        {
          "id": 6,
          "name": "Vertical bridge",
          "type": "Fixture review",
          "x": 128,
          "y": 128,
          "width": 128,
          "height": 128,
          "rotation": 0,
          "visible": true
        },
        {
          "id": 7,
          "name": "Pond and shoreline",
          "type": "Fixture review",
          "x": 256,
          "y": 128,
          "width": 128,
          "height": 128,
          "rotation": 0,
          "visible": true
        },
        {
          "id": 8,
          "name": "Rock cascade",
          "type": "Fixture review",
          "x": 384,
          "y": 128,
          "width": 128,
          "height": 128,
          "rotation": 0,
          "visible": true
        },
        {
          "id": 9,
          "name": "Broadleaf tree",
          "type": "Fixture review",
          "x": 0,
          "y": 256,
          "width": 128,
          "height": 128,
          "rotation": 0,
          "visible": true
        },
        {
          "id": 10,
          "name": "Tree grove",
          "type": "Fixture review",
          "x": 128,
          "y": 256,
          "width": 128,
          "height": 128,
          "rotation": 0,
          "visible": true
        },
        {
          "id": 11,
          "name": "Boulder cluster",
          "type": "Fixture review",
          "x": 256,
          "y": 256,
          "width": 128,
          "height": 128,
          "rotation": 0,
          "visible": true
        },
        {
          "id": 12,
          "name": "Shrine arch",
          "type": "Fixture review",
          "x": 384,
          "y": 256,
          "width": 128,
          "height": 128,
          "rotation": 0,
          "visible": true
        },
        {
          "id": 13,
          "name": "Fishing dock",
          "type": "Fixture review",
          "x": 0,
          "y": 384,
          "width": 128,
          "height": 128,
          "rotation": 0,
          "visible": true
        },
        {
          "id": 14,
          "name": "Marsh boardwalk",
          "type": "Fixture review",
          "x": 128,
          "y": 384,
          "width": 128,
          "height": 128,
          "rotation": 0,
          "visible": true
        },
        {
          "id": 15,
          "name": "Gathering camp",
          "type": "Fixture review",
          "x": 256,
          "y": 384,
          "width": 128,
          "height": 128,
          "rotation": 0,
          "visible": true
        },
        {
          "id": 16,
          "name": "Well and garden",
          "type": "Fixture review",
          "x": 384,
          "y": 384,
          "width": 128,
          "height": 128,
          "rotation": 0,
          "visible": true
        }
      ]
    }
  ]
}
