{
  "type": "map",
  "version": "1.10",
  "tiledversion": "1.10.2",
  "orientation": "orthogonal",
  "renderorder": "right-down",
  "infinite": false,
  "width": 32,
  "height": 32,
  "tilewidth": 16,
  "tileheight": 16,
  "nextlayerid": 3,
  "nextobjectid": 19,
  "tilesets": [
    {
      "firstgid": 1,
      "name": "Environment spike",
      "image": "atlas-native.png",
      "imagewidth": 256,
      "imageheight": 256,
      "tilewidth": 16,
      "tileheight": 16,
      "columns": 16,
      "tilecount": 256,
      "margin": 0,
      "spacing": 0
    }
  ],
  "layers": [
    {
      "id": 1,
      "name": "Environment",
      "type": "tilelayer",
      "x": 0,
      "y": 0,
      "width": 32,
      "height": 32,
      "opacity": 1,
      "visible": true,
      "data": [
        1,
        1,
        1,
        1,
        1,
        1,
        1,
        1,
        1,
        1,
        1,
        1,
        1,
        1,
        1,
        2,
        18,
        17,
        17,
        17,
        17,
        17,
        17,
        17,
        17,
        17,
        17,
        17,
        17,
        17,
        17,
        17,
        1,
        5,
        1,
        1,
        1,
        7,
        1,
        3,
        3,
        3,
        129,
        130,
        131,
        132,
        1,
        2,
        18,
        21,
        17,
        17,
        17,
        23,
        17,
        17,
        17,
        17,
        133,
        134,
        135,
        136,
        17,
        17,
        1,
        1,
        1,
        6,
        1,
        1,
        1,
        3,
        3,
        3,
        145,
        146,
        147,
        148,
        1,
        2,
        18,
        17,
        17,
        22,
        17,
        17,
        17,
        17,
        17,
        17,
        149,
        150,
        151,
        152,
        17,
        17,
        1,
        8,
        1,
        1,
        1,
        1,
        15,
        3,
        3,
        3,
        161,
        162,
        163,
        164,
        1,
        2,
        18,
        24,
        17,
        17,
        17,
        17,
        31,
        17,
        17,
        17,
        165,
        166,
        167,
        168,
        17,
        17,
        1,
        1,
        1,
        1,
        9,
        1,
        1,
        1,
        1,
        1,
        177,
        178,
        179,
        180,
        1,
        2,
        18,
        17,
        17,
        17,
        25,
        17,
        17,
        17,
        17,
        17,
        181,
        182,
        183,
        184,
        17,
        17,
        2,
        2,
        2,
        2,
        2,
        2,
        2,
        2,
        2,
        2,
        2,
        2,
        2,
        2,
        2,
        2,
        18,
        18,
        18,
        18,
        18,
        18,
        18,
        18,
        18,
        18,
        18,
        18,
        18,
        18,
        18,
        18,
        1,
        1,
        11,
        1,
        16,
        1,
        10,
        1,
        1,
        1,
        12,
        1,
        13,
        1,
        14,
        2,
        18,
        17,
        27,
        17,
        32,
        17,
        26,
        17,
        17,
        17,
        28,
        17,
        29,
        17,
        30,
        17,
        1,
        1,
        1,
        1,
        1,
        1,
        1,
        1,
        1,
        1,
        1,
        1,
        1,
        1,
        1,
        2,
        18,
        17,
        17,
        17,
        17,
        17,
        17,
        17,
        17,
        17,
        17,
        17,
        17,
        17,
        17,
        17,
        33,
        33,
        33,
        33,
        33,
        33,
        33,
        33,
        33,
        35,
        35,
        35,
        35,
        35,
        35,
        35,
        50,
        49,
        49,
        49,
        49,
        49,
        49,
        49,
        49,
        49,
        49,
        49,
        49,
        49,
        49,
        49,
        33,
        37,
        33,
        33,
        33,
        39,
        33,
        33,
        33,
        35,
        35,
        35,
        35,
        35,
        35,
        35,
        50,
        53,
        49,
        49,
        49,
        55,
        49,
        51,
        51,
        51,
        49,
        49,
        49,
        49,
        49,
        49,
        33,
        33,
        33,
        38,
        33,
        33,
        33,
        33,
        33,
        35,
        35,
        35,
        35,
        35,
        35,
        35,
        50,
        49,
        49,
        54,
        49,
        49,
        49,
        51,
        51,
        51,
        49,
        49,
        49,
        49,
        49,
        49,
        33,
        40,
        33,
        33,
        33,
        33,
        47,
        33,
        33,
        35,
        35,
        35,
        35,
        35,
        35,
        35,
        50,
        56,
        49,
        49,
        49,
        49,
        63,
        51,
        51,
        51,
        49,
        49,
        49,
        49,
        49,
        49,
        33,
        33,
        33,
        33,
        41,
        33,
        33,
        33,
        33,
        35,
        35,
        35,
        35,
        35,
        35,
        35,
        50,
        49,
        49,
        49,
        57,
        49,
        49,
        49,
        49,
        49,
        49,
        49,
        49,
        49,
        49,
        49,
        34,
        34,
        34,
        34,
        34,
        34,
        34,
        34,
        34,
        34,
        34,
        34,
        34,
        34,
        34,
        34,
        50,
        50,
        50,
        50,
        50,
        50,
        50,
        50,
        50,
        50,
        50,
        50,
        50,
        50,
        50,
        50,
        33,
        33,
        43,
        33,
        48,
        33,
        42,
        33,
        33,
        35,
        44,
        35,
        45,
        35,
        46,
        35,
        50,
        49,
        59,
        49,
        64,
        49,
        58,
        49,
        49,
        49,
        60,
        49,
        61,
        49,
        62,
        49,
        33,
        33,
        33,
        33,
        33,
        33,
        33,
        33,
        33,
        35,
        35,
        35,
        35,
        35,
        35,
        35,
        50,
        49,
        49,
        49,
        49,
        49,
        49,
        49,
        49,
        49,
        49,
        49,
        49,
        49,
        49,
        49,
        68,
        65,
        65,
        68,
        65,
        65,
        68,
        65,
        65,
        68,
        65,
        65,
        68,
        65,
        65,
        68,
        84,
        81,
        81,
        84,
        81,
        81,
        84,
        81,
        81,
        84,
        81,
        81,
        84,
        81,
        81,
        84,
        65,
        69,
        65,
        65,
        65,
        71,
        65,
        67,
        67,
        67,
        65,
        65,
        65,
        65,
        65,
        66,
        82,
        85,
        81,
        81,
        81,
        87,
        81,
        81,
        81,
        81,
        81,
        81,
        81,
        81,
        81,
        81,
        65,
        65,
        65,
        70,
        65,
        65,
        65,
        67,
        67,
        67,
        65,
        65,
        65,
        65,
        65,
        66,
        82,
        81,
        81,
        86,
        81,
        81,
        81,
        81,
        81,
        81,
        81,
        81,
        81,
        81,
        81,
        81,
        65,
        72,
        65,
        65,
        65,
        65,
        79,
        67,
        67,
        67,
        65,
        65,
        65,
        65,
        65,
        66,
        82,
        88,
        81,
        81,
        81,
        81,
        95,
        81,
        81,
        81,
        81,
        81,
        81,
        81,
        81,
        81,
        65,
        65,
        65,
        65,
        73,
        65,
        65,
        65,
        65,
        65,
        65,
        65,
        65,
        65,
        65,
        66,
        82,
        81,
        81,
        81,
        89,
        81,
        81,
        81,
        81,
        81,
        81,
        81,
        81,
        81,
        81,
        81,
        66,
        66,
        66,
        66,
        66,
        66,
        66,
        66,
        66,
        66,
        66,
        66,
        66,
        66,
        66,
        66,
        82,
        82,
        82,
        82,
        82,
        82,
        82,
        82,
        82,
        82,
        82,
        82,
        82,
        82,
        82,
        82,
        65,
        65,
        75,
        65,
        80,
        65,
        74,
        65,
        65,
        65,
        76,
        65,
        77,
        65,
        78,
        66,
        82,
        81,
        91,
        81,
        96,
        81,
        90,
        81,
        81,
        81,
        92,
        81,
        93,
        81,
        94,
        81,
        65,
        65,
        65,
        65,
        65,
        65,
        65,
        65,
        65,
        65,
        65,
        65,
        65,
        65,
        65,
        66,
        82,
        81,
        81,
        81,
        81,
        81,
        81,
        81,
        81,
        81,
        81,
        81,
        81,
        81,
        81,
        81,
        100,
        97,
        97,
        100,
        97,
        97,
        100,
        97,
        97,
        100,
        97,
        97,
        100,
        97,
        97,
        100,
        116,
        113,
        113,
        116,
        113,
        113,
        116,
        113,
        113,
        116,
        113,
        113,
        116,
        113,
        113,
        116,
        97,
        129,
        130,
        131,
        132,
        103,
        97,
        97,
        97,
        97,
        137,
        138,
        139,
        140,
        97,
        98,
        114,
        117,
        113,
        113,
        113,
        119,
        113,
        113,
        113,
        113,
        141,
        142,
        143,
        144,
        113,
        113,
        97,
        145,
        146,
        147,
        148,
        97,
        97,
        97,
        97,
        97,
        153,
        154,
        155,
        156,
        97,
        98,
        114,
        113,
        113,
        118,
        113,
        113,
        113,
        113,
        113,
        113,
        157,
        158,
        159,
        160,
        113,
        113,
        97,
        161,
        162,
        163,
        164,
        97,
        111,
        97,
        97,
        97,
        169,
        170,
        171,
        172,
        97,
        98,
        114,
        120,
        113,
        113,
        113,
        113,
        127,
        113,
        113,
        113,
        173,
        174,
        175,
        176,
        113,
        113,
        97,
        177,
        178,
        179,
        180,
        97,
        97,
        97,
        97,
        97,
        185,
        186,
        187,
        188,
        97,
        98,
        114,
        113,
        113,
        113,
        121,
        113,
        113,
        113,
        113,
        113,
        189,
        190,
        191,
        192,
        113,
        113,
        98,
        98,
        98,
        98,
        98,
        98,
        98,
        98,
        98,
        98,
        98,
        98,
        98,
        98,
        98,
        98,
        114,
        114,
        114,
        114,
        114,
        114,
        114,
        114,
        114,
        114,
        114,
        114,
        114,
        114,
        114,
        114,
        97,
        97,
        107,
        97,
        112,
        97,
        106,
        97,
        97,
        97,
        108,
        97,
        109,
        97,
        110,
        98,
        114,
        113,
        123,
        113,
        128,
        113,
        122,
        113,
        113,
        113,
        124,
        113,
        125,
        113,
        126,
        113,
        97,
        97,
        97,
        97,
        97,
        97,
        97,
        97,
        97,
        97,
        97,
        97,
        97,
        97,
        97,
        98,
        114,
        113,
        113,
        113,
        113,
        113,
        113,
        113,
        113,
        113,
        113,
        113,
        113,
        113,
        113,
        113
      ]
    },
    {
      "id": 2,
      "name": "Locations",
      "type": "objectgroup",
      "opacity": 1,
      "visible": true,
      "objects": [
        {
          "id": 1,
          "name": "Meadow",
          "type": "Review location",
          "x": 0,
          "y": 0,
          "width": 256,
          "height": 128,
          "rotation": 0,
          "visible": true
        },
        {
          "id": 2,
          "name": "Cottage",
          "type": "Review location",
          "x": 160,
          "y": 32,
          "width": 64,
          "height": 48,
          "rotation": 0,
          "visible": true
        },
        {
          "id": 3,
          "name": "Cottage door",
          "type": "Entrance review",
          "x": 176,
          "y": 64,
          "width": 16,
          "height": 16,
          "rotation": 0,
          "visible": true,
          "properties": [
            {
              "name": "approachX",
              "type": "int",
              "value": 11
            },
            {
              "name": "approachY",
              "type": "int",
              "value": 5
            },
            {
              "name": "facing",
              "type": "string",
              "value": "UP"
            },
            {
              "name": "interaction",
              "type": "string",
              "value": "A while facing door; not installed"
            }
          ]
        },
        {
          "id": 4,
          "name": "Woodland",
          "type": "Review location",
          "x": 256,
          "y": 0,
          "width": 256,
          "height": 128,
          "rotation": 0,
          "visible": true
        },
        {
          "id": 5,
          "name": "Woodland cabin",
          "type": "Review location",
          "x": 416,
          "y": 32,
          "width": 64,
          "height": 48,
          "rotation": 0,
          "visible": true
        },
        {
          "id": 6,
          "name": "Woodland cabin door",
          "type": "Entrance review",
          "x": 432,
          "y": 64,
          "width": 16,
          "height": 16,
          "rotation": 0,
          "visible": true,
          "properties": [
            {
              "name": "approachX",
              "type": "int",
              "value": 27
            },
            {
              "name": "approachY",
              "type": "int",
              "value": 5
            },
            {
              "name": "facing",
              "type": "string",
              "value": "UP"
            },
            {
              "name": "interaction",
              "type": "string",
              "value": "A while facing door; not installed"
            }
          ]
        },
        {
          "id": 7,
          "name": "Coast",
          "type": "Review location",
          "x": 0,
          "y": 128,
          "width": 256,
          "height": 128,
          "rotation": 0,
          "visible": true
        },
        {
          "id": 8,
          "name": "Marsh",
          "type": "Review location",
          "x": 256,
          "y": 128,
          "width": 256,
          "height": 128,
          "rotation": 0,
          "visible": true
        },
        {
          "id": 9,
          "name": "Mountain",
          "type": "Review location",
          "x": 0,
          "y": 256,
          "width": 256,
          "height": 128,
          "rotation": 0,
          "visible": true
        },
        {
          "id": 10,
          "name": "Snow",
          "type": "Review location",
          "x": 256,
          "y": 256,
          "width": 256,
          "height": 128,
          "rotation": 0,
          "visible": true
        },
        {
          "id": 11,
          "name": "Village",
          "type": "Review location",
          "x": 0,
          "y": 384,
          "width": 256,
          "height": 128,
          "rotation": 0,
          "visible": true
        },
        {
          "id": 12,
          "name": "Village shop",
          "type": "Review location",
          "x": 160,
          "y": 416,
          "width": 64,
          "height": 48,
          "rotation": 0,
          "visible": true
        },
        {
          "id": 13,
          "name": "Village shop door",
          "type": "Entrance review",
          "x": 176,
          "y": 448,
          "width": 16,
          "height": 16,
          "rotation": 0,
          "visible": true,
          "properties": [
            {
              "name": "approachX",
              "type": "int",
              "value": 11
            },
            {
              "name": "approachY",
              "type": "int",
              "value": 29
            },
            {
              "name": "facing",
              "type": "string",
              "value": "UP"
            },
            {
              "name": "interaction",
              "type": "string",
              "value": "A while facing door; not installed"
            }
          ]
        },
        {
          "id": 14,
          "name": "Village cottage",
          "type": "Review location",
          "x": 16,
          "y": 416,
          "width": 64,
          "height": 48,
          "rotation": 0,
          "visible": true
        },
        {
          "id": 15,
          "name": "Village cottage door",
          "type": "Entrance review",
          "x": 32,
          "y": 448,
          "width": 16,
          "height": 16,
          "rotation": 0,
          "visible": true,
          "properties": [
            {
              "name": "approachX",
              "type": "int",
              "value": 2
            },
            {
              "name": "approachY",
              "type": "int",
              "value": 29
            },
            {
              "name": "facing",
              "type": "string",
              "value": "UP"
            },
            {
              "name": "interaction",
              "type": "string",
              "value": "A while facing door; not installed"
            }
          ]
        },
        {
          "id": 16,
          "name": "Ruins",
          "type": "Review location",
          "x": 256,
          "y": 384,
          "width": 256,
          "height": 128,
          "rotation": 0,
          "visible": true
        },
        {
          "id": 17,
          "name": "Stone tower",
          "type": "Review location",
          "x": 416,
          "y": 416,
          "width": 64,
          "height": 48,
          "rotation": 0,
          "visible": true
        },
        {
          "id": 18,
          "name": "Stone tower door",
          "type": "Entrance review",
          "x": 432,
          "y": 448,
          "width": 16,
          "height": 16,
          "rotation": 0,
          "visible": true,
          "properties": [
            {
              "name": "approachX",
              "type": "int",
              "value": 27
            },
            {
              "name": "approachY",
              "type": "int",
              "value": 29
            },
            {
              "name": "facing",
              "type": "string",
              "value": "UP"
            },
            {
              "name": "interaction",
              "type": "string",
              "value": "A while facing door; not installed"
            }
          ]
        }
      ]
    }
  ]
}
