{
  "type": "map",
  "version": "1.10",
  "tiledversion": "1.10.2",
  "orientation": "orthogonal",
  "renderorder": "right-down",
  "infinite": false,
  "width": 32,
  "height": 8,
  "tilewidth": 16,
  "tileheight": 16,
  "nextlayerid": 3,
  "nextobjectid": 5,
  "tilesets": [
    {
      "firstgid": 1,
      "name": "Environment spike",
      "image": "atlas-native.png",
      "imagewidth": 256,
      "imageheight": 256,
      "tilewidth": 16,
      "tileheight": 16,
      "columns": 16,
      "tilecount": 256,
      "margin": 0,
      "spacing": 0
    }
  ],
  "layers": [
    {
      "id": 1,
      "name": "Environment",
      "type": "tilelayer",
      "x": 0,
      "y": 0,
      "width": 32,
      "height": 8,
      "opacity": 1,
      "visible": true,
      "data": [
        1,
        1,
        1,
        1,
        1,
        1,
        1,
        1,
        97,
        97,
        97,
        97,
        97,
        97,
        97,
        97,
        113,
        113,
        113,
        113,
        113,
        113,
        113,
        113,
        65,
        65,
        65,
        65,
        65,
        65,
        65,
        65,
        1,
        1,
        1,
        1,
        1,
        1,
        1,
        1,
        97,
        97,
        97,
        97,
        97,
        97,
        97,
        97,
        113,
        113,
        113,
        113,
        113,
        113,
        113,
        113,
        65,
        65,
        65,
        65,
        65,
        65,
        65,
        65,
        1,
        1,
        193,
        194,
        195,
        196,
        1,
        1,
        97,
        97,
        197,
        198,
        199,
        200,
        97,
        97,
        113,
        113,
        201,
        202,
        203,
        204,
        113,
        113,
        65,
        65,
        205,
        206,
        207,
        208,
        65,
        65,
        1,
        1,
        209,
        210,
        211,
        212,
        1,
        1,
        97,
        97,
        213,
        214,
        215,
        216,
        97,
        97,
        113,
        113,
        217,
        218,
        219,
        220,
        113,
        113,
        65,
        65,
        221,
        222,
        223,
        224,
        65,
        65,
        1,
        1,
        225,
        226,
        227,
        228,
        1,
        1,
        97,
        97,
        229,
        230,
        231,
        232,
        97,
        97,
        113,
        113,
        233,
        234,
        235,
        236,
        113,
        113,
        65,
        65,
        237,
        238,
        239,
        240,
        65,
        65,
        1,
        1,
        241,
        242,
        243,
        244,
        1,
        1,
        97,
        97,
        245,
        246,
        247,
        248,
        97,
        97,
        113,
        113,
        249,
        250,
        251,
        252,
        113,
        113,
        65,
        65,
        253,
        254,
        255,
        256,
        65,
        65,
        1,
        1,
        1,
        1,
        1,
        1,
        1,
        1,
        97,
        97,
        97,
        97,
        97,
        97,
        97,
        97,
        113,
        113,
        113,
        113,
        113,
        113,
        113,
        113,
        65,
        65,
        65,
        65,
        65,
        65,
        65,
        65,
        1,
        1,
        1,
        1,
        1,
        1,
        1,
        1,
        97,
        97,
        97,
        97,
        97,
        97,
        97,
        97,
        113,
        113,
        113,
        113,
        113,
        113,
        113,
        113,
        65,
        65,
        65,
        65,
        65,
        65,
        65,
        65
      ]
    },
    {
      "id": 2,
      "name": "Locations",
      "type": "objectgroup",
      "opacity": 1,
      "visible": true,
      "objects": [
        {
          "id": 1,
          "name": "Cottage room",
          "type": "Review location",
          "x": 32,
          "y": 32,
          "width": 64,
          "height": 64,
          "rotation": 0,
          "visible": true
        },
        {
          "id": 2,
          "name": "Shop room",
          "type": "Review location",
          "x": 160,
          "y": 32,
          "width": 64,
          "height": 64,
          "rotation": 0,
          "visible": true
        },
        {
          "id": 3,
          "name": "Ruined shrine",
          "type": "Review location",
          "x": 288,
          "y": 32,
          "width": 64,
          "height": 64,
          "rotation": 0,
          "visible": true
        },
        {
          "id": 4,
          "name": "Crystal cave",
          "type": "Review location",
          "x": 416,
          "y": 32,
          "width": 64,
          "height": 64,
          "rotation": 0,
          "visible": true
        }
      ]
    }
  ]
}
